X: 1
T: Baker's, The
M: 4/4
L: 1/8
R: reel
K: Amaj
efg |: aedc BcdB | ~c2 Bc A3 F | EAGA BcdB | cBAc Befg |
aedc BcdB | ~c2 Bc A3 F | EAGA BcdB |1 (3cBA Bc Aefg :|2 (3cBA Bc Aagf ||
ec ~c2 ecfc | ec ~c2 ecfc | ecAc ecBA | GABc ~d2 cd |
ec ~c2 ecfc | ec ~c2 e2 fg | agfe dcBA |1 GABc ~d2 cd :|2 GABc defg ||
